src/assets/duotone/CodeCircle.svg

<svg width="24" height="24" viewBox="0 0 24 24"  xmlns="http://www.w3.org/2000/svg">
<path opacity="0.4" d="M12 22C17.5228 22 22 17.5228 22 12C22 6.47715 17.5228 2 12 2C6.47715 2 2 6.47715 2 12C2 17.5228 6.47715 22 12 22Z" />
<path d="M7.99994 14.7495C7.80994 14.7495 7.61994 14.6795 7.46994 14.5295L5.46994 12.5295C5.17994 12.2395 5.17994 11.7595 5.46994 11.4695L7.46994 9.46945C7.75994 9.17945 8.23994 9.17945 8.52994 9.46945C8.81994 9.75945 8.81994 10.2395 8.52994 10.5295L7.05994 11.9995L8.52994 13.4695C8.81994 13.7595 8.81994 14.2395 8.52994 14.5295C8.37994 14.6795 8.18994 14.7495 7.99994 14.7495Z" />
<path d="M15.9999 14.7495C15.8099 14.7495 15.6199 14.6795 15.4699 14.5295C15.1799 14.2395 15.1799 13.7595 15.4699 13.4695L16.9399 11.9995L15.4699 10.5295C15.1799 10.2395 15.1799 9.75945 15.4699 9.46945C15.7599 9.17945 16.2399 9.17945 16.5299 9.46945L18.5299 11.4695C18.8199 11.7595 18.8199 12.2395 18.5299 12.5295L16.5299 14.5295C16.3799 14.6795 16.1899 14.7495 15.9999 14.7495Z" />
<path d="M11.0001 15.0796C10.9001 15.0796 10.8001 15.0596 10.7101 15.0196C10.3301 14.8596 10.1501 14.4196 10.3201 14.0296L12.3201 9.35955C12.4801 8.97955 12.9201 8.79954 13.3001 8.96954C13.6801 9.12954 13.8601 9.56959 13.6901 9.95959L11.6901 14.6296C11.5701 14.9096 11.2901 15.0796 11.0001 15.0796Z" />
</svg>

<?xml version="1.0" encoding="UTF-8"?>
<svg width="24" height="24" viewBox="0 0 24 24" xmlns="http://www.w3.org/2000/svg">
 <path d="m12 22c5.5228 0 10-4.4772 10-10 0-5.5228-4.4772-10-10-10-5.5228 0-10 4.4772-10 10 0 5.5228 4.4772 10 10 10z" opacity=".4"/>
 <path d="m7.9999 14.75c-0.19 0-0.38-0.07-0.53-0.22l-2-2c-0.29-0.29-0.29-0.77 0-1.06l2-2c0.29-0.29 0.77-0.29 1.06 0s0.29 0.77005 0 1.06l-1.47 1.47 1.47 1.47c0.29 0.29 0.29 0.77 0 1.06-0.15 0.15-0.34 0.22-0.53 0.22z"/>
 <path d="m16 14.75c-0.19 0-0.38-0.07-0.53-0.22-0.29-0.29-0.29-0.77 0-1.06l1.47-1.47-1.47-1.47c-0.29-0.29-0.29-0.77005 0-1.06s0.77-0.29 1.06 0l2 2c0.29 0.29 0.29 0.77 0 1.06l-2 2c-0.15 0.15-0.34 0.22-0.53 0.22z"/>
 <path d="m11 15.08c-0.1 0-0.2-0.02-0.29-0.06-0.38-0.16-0.56-0.6-0.39-0.99l2-4.67c0.16-0.38 0.6-0.56001 0.98-0.39001 0.38 0.16 0.56 0.60005 0.39 0.99005l-2 4.67c-0.12 0.28-0.4 0.45-0.69 0.45z"/>
</svg>
